packages/react/src/medium-passport-button.svg

<?xml version="1.0" encoding="UTF-8"?>
<svg width="212px" height="40px" viewBox="0 0 212 40" version="1.1" xmlns="http://www.w3.org/2000/svg" xmlns:xlink="http://www.w3.org/1999/xlink">
  <title>Parallel Login Button</title>
    <g id="Page-1" stroke="none" stroke-width="1" fill="none" fill-rule="evenodd">
        <g id="login" transform="translate(-659.000000, -206.000000)">
            <g id="medium" transform="translate(659.000000, 206.000000)">
                <rect id="Rectangle" fill="#167FFC" x="0" y="0" width="212" height="40" rx="3"></rect>
                <path d="M58.3875,26 L58.3875,22.97 L60.7575,22.97 C61.6675,22.97 62.46,22.82 63.135,22.52 C63.81,22.22 64.3275,21.7875 64.6875,21.2225 C65.0475,20.6575 65.2275,19.995 65.2275,19.235 C65.2275,18.465 65.0475,17.8 64.6875,17.24 C64.3275,16.68 63.81,16.25 63.135,15.95 C62.46,15.65 61.6675,15.5 60.7575,15.5 L60.7575,15.5 L56.4375,15.5 L56.4375,26 L58.3875,26 Z M60.6675,21.32 L58.3875,21.32 L58.3875,17.15 L60.6675,17.15 C61.5175,17.15 62.1625,17.33 62.6025,17.69 C63.0425,18.05 63.2625,18.565 63.2625,19.235 C63.2625,19.905 63.0425,20.42 62.6025,20.78 C62.1625,21.14 61.5175,21.32 60.6675,21.32 L60.6675,21.32 Z M69.5625,26.105 C70.1625,26.105 70.675,26.0125 71.1,25.8275 C71.525,25.6425 71.8525,25.375 72.0825,25.025 L72.0825,25.025 L72.0825,26 L73.8525,26 L73.8525,21.305 C73.8525,20.165 73.54,19.3125 72.915,18.7475 C72.29,18.1825 71.3875,17.9 70.2075,17.9 C69.5475,17.9 68.9225,17.985 68.3325,18.155 C67.7425,18.325 67.2375,18.57 66.8175,18.89 L66.8175,18.89 L67.5525,20.255 C67.8525,20.005 68.22,19.81 68.655,19.67 C69.09,19.53 69.5325,19.46 69.9825,19.46 C70.6425,19.46 71.14,19.61 71.475,19.91 C71.81,20.21 71.9775,20.64 71.9775,21.2 L71.9775,21.2 L71.9775,21.32 L69.9075,21.32 C68.7575,21.32 67.915,21.5375 67.38,21.9725 C66.845,22.4075 66.5775,22.985 66.5775,23.705 C66.5775,24.165 66.7,24.5775 66.945,24.9425 C67.19,25.3075 67.5375,25.5925 67.9875,25.7975 C68.4375,26.0025 68.9625,26.105 69.5625,26.105 Z M69.9525,24.74 C69.4725,24.74 69.0975,24.64 68.8275,24.44 C68.5575,24.24 68.4225,23.97 68.4225,23.63 C68.4225,22.92 68.9625,22.565 70.0425,22.565 L70.0425,22.565 L71.9775,22.565 L71.9775,23.495 C71.8275,23.895 71.57,24.2025 71.205,24.4175 C70.84,24.6325 70.4225,24.74 69.9525,24.74 Z M78.1275,26 L78.1275,22.115 C78.1275,21.315 78.3325,20.7025 78.7425,20.2775 C79.1525,19.8525 79.7225,19.64 80.4525,19.64 C80.5825,19.64 80.7275,19.655 80.8875,19.685 L80.8875,19.685 L80.8875,17.9 C79.5275,17.9 78.5775,18.32 78.0375,19.16 L78.0375,19.16 L78.0375,17.99 L76.2525,17.99 L76.2525,26 L78.1275,26 Z M84.9675,26.105 C85.5675,26.105 86.08,26.0125 86.505,25.8275 C86.93,25.6425 87.2575,25.375 87.4875,25.025 L87.4875,25.025 L87.4875,26 L89.2575,26 L89.2575,21.305 C89.2575,20.165 88.945,19.3125 88.32,18.7475 C87.695,18.1825 86.7925,17.9 85.6125,17.9 C84.9525,17.9 84.3275,17.985 83.7375,18.155 C83.1475,18.325 82.6425,18.57 82.2225,18.89 L82.2225,18.89 L82.9575,20.255 C83.2575,20.005 83.625,19.81 84.06,19.67 C84.495,19.53 84.9375,19.46 85.3875,19.46 C86.0475,19.46 86.545,19.61 86.88,19.91 C87.215,20.21 87.3825,20.64 87.3825,21.2 L87.3825,21.2 L87.3825,21.32 L85.3125,21.32 C84.1625,21.32 83.32,21.5375 82.785,21.9725 C82.25,22.4075 81.9825,22.985 81.9825,23.705 C81.9825,24.165 82.105,24.5775 82.35,24.9425 C82.595,25.3075 82.9425,25.5925 83.3925,25.7975 C83.8425,26.0025 84.3675,26.105 84.9675,26.105 Z M85.3575,24.74 C84.8775,24.74 84.5025,24.64 84.2325,24.44 C83.9625,24.24 83.8275,23.97 83.8275,23.63 C83.8275,22.92 84.3675,22.565 85.4475,22.565 L85.4475,22.565 L87.3825,22.565 L87.3825,23.495 C87.2325,23.895 86.975,24.2025 86.61,24.4175 C86.245,24.6325 85.8275,24.74 85.3575,24.74 Z M93.5325,26 L93.5325,14.87 L91.6575,14.87 L91.6575,26 L93.5325,26 Z M97.8675,26 L97.8675,14.87 L95.9925,14.87 L95.9925,26 L97.8675,26 Z M104.0925,26.105 C104.7825,26.105 105.4025,25.995 105.9525,25.775 C106.5025,25.555 106.9575,25.23 107.3175,24.8 L107.3175,24.8 L106.3125,23.645 C105.7425,24.225 105.0175,24.515 104.1375,24.515 C103.4475,24.515 102.87,24.3425 102.405,23.9975 C101.94,23.6525 101.6525,23.185 101.5425,22.595 L101.5425,22.595 L107.8275,22.595 C107.8475,22.355 107.8575,22.17 107.8575,22.04 C107.8575,21.22 107.685,20.4975 107.34,19.8725 C106.995,19.2475 106.515,18.7625 105.9,18.4175 C105.285,18.0725 104.5875,17.9 103.8075,17.9 C103.0175,17.9 102.3075,18.075 101.6775,18.425 C101.0475,18.775 100.555,19.2625 100.2,19.8875 C99.845,20.5125 99.6675,21.215 99.6675,21.995 C99.6675,22.785 99.85,23.4925 100.215,24.1175 C100.58,24.7425 101.0975,25.23 101.7675,25.58 C102.4375,25.93 103.2125,26.105 104.0925,26.105 Z M106.0725,21.35 L101.5275,21.35 C101.6175,20.76 101.87,20.2875 102.285,19.9325 C102.7,19.5775 103.2075,19.4 103.8075,19.4 C104.4175,19.4 104.9275,19.58 105.3375,19.94 C105.7475,20.3 105.9925,20.77 106.0725,21.35 L106.0725,21.35 Z M111.5325,26 L111.5325,14.87 L109.6575,14.87 L109.6575,26 L111.5325,26 Z M120.2625,26 L120.2625,22.97 L122.6325,22.97 C123.5425,22.97 124.335,22.82 125.01,22.52 C125.685,22.22 126.2025,21.7875 126.5625,21.2225 C126.9225,20.6575 127.1025,19.995 127.1025,19.235 C127.1025,18.465 126.9225,17.8 126.5625,17.24 C126.2025,16.68 125.685,16.25 125.01,15.95 C124.335,15.65 123.5425,15.5 122.6325,15.5 L122.6325,15.5 L118.3125,15.5 L118.3125,26 L120.2625,26 Z M122.5425,21.32 L120.2625,21.32 L120.2625,17.15 L122.5425,17.15 C123.3925,17.15 124.0375,17.33 124.4775,17.69 C124.9175,18.05 125.1375,18.565 125.1375,19.235 C125.1375,19.905 124.9175,20.42 124.4775,20.78 C124.0375,21.14 123.3925,21.32 122.5425,21.32 L122.5425,21.32 Z M131.4375,26.105 C132.0375,26.105 132.55,26.0125 132.975,25.8275 C133.4,25.6425 133.7275,25.375 133.9575,25.025 L133.9575,25.025 L133.9575,26 L135.7275,26 L135.7275,21.305 C135.7275,20.165 135.415,19.3125 134.79,18.7475 C134.165,18.1825 133.2625,17.9 132.0825,17.9 C131.4225,17.9 130.7975,17.985 130.2075,18.155 C129.6175,18.325 129.1125,18.57 128.6925,18.89 L128.6925,18.89 L129.4275,20.255 C129.7275,20.005 130.095,19.81 130.53,19.67 C130.965,19.53 131.4075,19.46 131.8575,19.46 C132.5175,19.46 133.015,19.61 133.35,19.91 C133.685,20.21 133.8525,20.64 133.8525,21.2 L133.8525,21.2 L133.8525,21.32 L131.7825,21.32 C130.6325,21.32 129.79,21.5375 129.255,21.9725 C128.72,22.4075 128.4525,22.985 128.4525,23.705 C128.4525,24.165 128.575,24.5775 128.82,24.9425 C129.065,25.3075 129.4125,25.5925 129.8625,25.7975 C130.3125,26.0025 130.8375,26.105 131.4375,26.105 Z M131.8275,24.74 C131.3475,24.74 130.9725,24.64 130.7025,24.44 C130.4325,24.24 130.2975,23.97 130.2975,23.63 C130.2975,22.92 130.8375,22.565 131.9175,22.565 L131.9175,22.565 L133.8525,22.565 L133.8525,23.495 C133.7025,23.895 133.445,24.2025 133.08,24.4175 C132.715,24.6325 132.2975,24.74 131.8275,24.74 Z M140.6025,26.105 C141.7225,26.105 142.6075,25.88 143.2575,25.43 C143.9075,24.98 144.2325,24.38 144.2325,23.63 C144.2325,23.06 144.085,22.62 143.79,22.31 C143.495,22 143.1425,21.78 142.7325,21.65 C142.3225,21.52 141.7975,21.405 141.1575,21.305 C140.5175,21.195 140.045,21.0775 139.74,20.9525 C139.435,20.8275 139.2825,20.615 139.2825,20.315 C139.2825,20.045 139.425,19.8275 139.71,19.6625 C139.995,19.4975 140.4125,19.415 140.9625,19.415 C141.8125,19.415 142.5775,19.615 143.2575,20.015 L143.2575,20.015 L143.9775,18.59 C143.6275,18.38 143.1775,18.2125 142.6275,18.0875 C142.0775,17.9625 141.5275,17.9 140.9775,17.9 C139.8975,17.9 139.04,18.1275 138.405,18.5825 C137.77,19.0375 137.4525,19.645 137.4525,20.405 C137.4525,20.985 137.605,21.4375 137.91,21.7625 C138.215,22.0875 138.575,22.315 138.99,22.445 C139.405,22.575 139.9425,22.69 140.6025,22.79 C141.2325,22.89 141.69,22.995 141.975,23.105 C142.26,23.215 142.4025,23.41 142.4025,23.69 C142.4025,24.28 141.8425,24.575 140.7225,24.575 C140.2325,24.575 139.735,24.5025 139.23,24.3575 C138.725,24.2125 138.2925,24.02 137.9325,23.78 L137.9325,23.78 L137.2125,25.205 C137.5825,25.465 138.0775,25.68 138.6975,25.85 C139.3175,26.02 139.9525,26.105 140.6025,26.105 Z M148.3275,26.105 C149.4475,26.105 150.3325,25.88 150.9825,25.43 C151.6325,24.98 151.9575,24.38 151.9575,23.63 C151.9575,23.06 151.81,22.62 151.515,22.31 C151.22,22 150.8675,21.78 150.4575,21.65 C150.0475,21.52 149.5225,21.405 148.8825,21.305 C148.2425,21.195 147.77,21.0775 147.465,20.9525 C147.16,20.8275 147.0075,20.615 147.0075,20.315 C147.0075,20.045 147.15,19.8275 147.435,19.6625 C147.72,19.4975 148.1375,19.415 148.6875,19.415 C149.5375,19.415 150.3025,19.615 150.9825,20.015 L150.9825,20.015 L151.7025,18.59 C151.3525,18.38 150.9025,18.2125 150.3525,18.0875 C149.8025,17.9625 149.2525,17.9 148.7025,17.9 C147.6225,17.9 146.765,18.1275 146.13,18.5825 C145.495,19.0375 145.1775,19.645 145.1775,20.405 C145.1775,20.985 145.33,21.4375 145.635,21.7625 C145.94,22.0875 146.3,22.315 146.715,22.445 C147.13,22.575 147.6675,22.69 148.3275,22.79 C148.9575,22.89 149.415,22.995 149.7,23.105 C149.985,23.215 150.1275,23.41 150.1275,23.69 C150.1275,24.28 149.5675,24.575 148.4475,24.575 C147.9575,24.575 147.46,24.5025 146.955,24.3575 C146.45,24.2125 146.0175,24.02 145.6575,23.78 L145.6575,23.78 L144.9375,25.205 C145.3075,25.465 145.8025,25.68 146.4225,25.85 C147.0425,26.02 147.6775,26.105 148.3275,26.105 Z M155.4525,28.91 L155.4525,25.025 C156.0825,25.745 156.9375,26.105 158.0175,26.105 C158.7975,26.105 159.495,25.935 160.11,25.595 C160.725,25.255 161.2075,24.7725 161.5575,24.1475 C161.9075,23.5225 162.0825,22.805 162.0825,21.995 C162.0825,21.185 161.9075,20.47 161.5575,19.85 C161.2075,19.23 160.725,18.75 160.11,18.41 C159.495,18.07 158.7975,17.9 158.0175,17.9 C157.4675,17.9 156.965,17.995 156.51,18.185 C156.055,18.375 155.6725,18.66 155.3625,19.04 L155.3625,19.04 L155.3625,17.99 L153.5775,17.99 L153.5775,28.91 L155.4525,28.91 Z M157.8075,24.5 C157.3575,24.5 156.9525,24.3975 156.5925,24.1925 C156.2325,23.9875 155.9475,23.695 155.7375,23.315 C155.5275,22.935 155.4225,22.495 155.4225,21.995 C155.4225,21.495 155.5275,21.055 155.7375,20.675 C155.9475,20.295 156.2325,20.0025 156.5925,19.7975 C156.9525,19.5925 157.3575,19.49 157.8075,19.49 C158.4975,19.49 159.065,19.72 159.51,20.18 C159.955,20.64 160.1775,21.245 160.1775,21.995 C160.1775,22.745 159.955,23.35 159.51,23.81 C159.065,24.27 158.4975,24.5 157.8075,24.5 Z M167.4675,26.105 C168.2875,26.105 169.0225,25.93 169.6725,25.58 C170.3225,25.23 170.83,24.7425 171.195,24.1175 C171.56,23.4925 171.7425,22.785 171.7425,21.995 C171.7425,21.205 171.56,20.5 171.195,19.88 C170.83,19.26 170.3225,18.775 169.6725,18.425 C169.0225,18.075 168.2875,17.9 167.4675,17.9 C166.6575,17.9 165.9275,18.075 165.2775,18.425 C164.6275,18.775 164.12,19.26 163.755,19.88 C163.39,20.5 163.2075,21.205 163.2075,21.995 C163.2075,22.785 163.39,23.4925 163.755,24.1175 C164.12,24.7425 164.6275,25.23 165.2775,25.58 C165.9275,25.93 166.6575,26.105 167.4675,26.105 Z M167.4675,24.5 C166.7775,24.5 166.21,24.27 165.765,23.81 C165.32,23.35 165.0975,22.745 165.0975,21.995 C165.0975,21.245 165.32,20.64 165.765,20.18 C166.21,19.72 166.7775,19.49 167.4675,19.49 C168.1575,19.49 168.7275,19.72 169.1775,20.18 C169.6275,20.64 169.8525,21.245 169.8525,21.995 C169.8525,22.745 169.6275,23.35 169.1775,23.81 C168.7275,24.27 168.1575,24.5 167.4675,24.5 Z M175.4175,26 L175.4175,22.115 C175.4175,21.315 175.6225,20.7025 176.0325,20.2775 C176.4425,19.8525 177.0125,19.64 177.7425,19.64 C177.8725,19.64 178.0175,19.655 178.1775,19.685 L178.1775,19.685 L178.1775,17.9 C176.8175,17.9 175.8675,18.32 175.3275,19.16 L175.3275,19.16 L175.3275,17.99 L173.5425,17.99 L173.5425,26 L175.4175,26 Z M182.8575,26.105 C183.2075,26.105 183.54,26.06 183.855,25.97 C184.17,25.88 184.4375,25.745 184.6575,25.565 L184.6575,25.565 L184.1325,24.23 C183.8525,24.45 183.5025,24.56 183.0825,24.56 C182.7225,24.56 182.4475,24.4575 182.2575,24.2525 C182.0675,24.0475 181.9725,23.75 181.9725,23.36 L181.9725,23.36 L181.9725,19.55 L184.1175,19.55 L184.1175,18.05 L181.9725,18.05 L181.9725,16.22 L180.0975,16.22 L180.0975,18.05 L178.7775,18.05 L178.7775,19.55 L180.0975,19.55 L180.0975,23.405 C180.0975,24.285 180.3375,24.955 180.8175,25.415 C181.2975,25.875 181.9775,26.105 182.8575,26.105 Z" id="ParallelPassport" fill="#FFFFFF" fill-rule="nonzero"></path>
                <g id="Parallel-Icon" transform="translate(12.000000, 10.000000)" stroke="#FFFFFF">
                    <line x1="0.5" y1="0" x2="0.5" y2="20" id="Line" stroke-width="0.9" stroke-linecap="square"></line>
                    <line x1="24.5" y1="0" x2="24.5" y2="20" id="Line" stroke-width="0.9" stroke-linecap="square"></line>
                    <g id="p" transform="translate(8.000000, 3.000000)">
                        <rect id="Rectangle" x="0.288389306" y="0.117620903" width="1" height="14.3336372"></rect>
                        <ellipse id="Oval" stroke-width="1.7" cx="5.45286159" cy="4.97320275" rx="4.53985074" ry="4.75070555"></ellipse>
                    </g>
                </g>
            </g>
        </g>
    </g>
</svg>

<svg width="212" height="40" xmlns="http://www.w3.org/2000/svg">
  <g fill="none" fill-rule="evenodd">
    <rect fill="#167FFC" width="212" height="40" rx="3"/>
    <path d="M58.39 26v-3.03h2.37c.9 0 1.7-.15 2.38-.45a3.43 3.43 0 0 0 2.09-3.28 3.6 3.6 0 0 0-.54-2 3.46 3.46 0 0 0-1.55-1.29 5.81 5.81 0 0 0-2.38-.45h-4.32V26h1.95Zm2.28-4.68h-2.28v-4.17h2.28c.85 0 1.5.18 1.93.54.44.36.66.88.66 1.54 0 .68-.22 1.19-.66 1.55-.44.36-1.08.54-1.93.54Zm8.9 4.79c.6 0 1.1-.1 1.53-.28.43-.19.75-.45.98-.8V26h1.77v-4.7c0-1.14-.31-1.99-.93-2.55-.63-.57-1.53-.85-2.71-.85-.66 0-1.29.09-1.88.26-.59.16-1.1.41-1.51.73l.73 1.36c.3-.25.67-.44 1.1-.58a4.3 4.3 0 0 1 1.33-.21c.66 0 1.16.15 1.5.45.33.3.5.73.5 1.29v.12H69.9c-1.15 0-2 .22-2.53.65-.53.44-.8 1.02-.8 1.73 0 .46.12.88.36 1.24.25.37.6.65 1.05.86.45.2.97.3 1.57.3Zm.38-1.37c-.48 0-.85-.1-1.12-.3a.96.96 0 0 1-.4-.81c0-.71.53-1.06 1.61-1.06h1.94v.93c-.15.4-.41.7-.78.92-.36.21-.78.32-1.25.32ZM78.13 26v-3.89c0-.8.2-1.4.61-1.83.41-.43.98-.64 1.71-.64.13 0 .28.02.44.04V17.9c-1.36 0-2.31.42-2.85 1.26v-1.17h-1.79V26h1.88Zm6.84.1c.6 0 1.11-.09 1.53-.27.43-.19.76-.45.99-.8V26h1.77v-4.7c0-1.14-.32-1.99-.94-2.55-.63-.57-1.53-.85-2.7-.85-.67 0-1.3.09-1.88.26-.6.16-1.1.41-1.52.73l.74 1.36c.3-.25.67-.44 1.1-.58a4.3 4.3 0 0 1 1.33-.21c.66 0 1.16.15 1.49.45.34.3.5.73.5 1.29v.12h-2.07c-1.15 0-1.99.22-2.53.65-.53.44-.8 1.02-.8 1.73 0 .46.13.88.37 1.24.25.37.6.65 1.04.86.45.2.98.3 1.58.3Zm.39-1.36c-.48 0-.86-.1-1.13-.3a.96.96 0 0 1-.4-.81c0-.71.54-1.06 1.62-1.06h1.93v.93c-.15.4-.4.7-.77.92-.36.21-.78.32-1.25.32ZM93.53 26V14.87h-1.87V26h1.87Zm4.34 0V14.87h-1.88V26h1.88Zm6.22.1c.7 0 1.31-.1 1.86-.33.55-.21 1-.54 1.37-.97l-1-1.16c-.58.59-1.3.88-2.18.88-.7 0-1.27-.18-1.73-.52a2.18 2.18 0 0 1-.87-1.4h6.29l.03-.56c0-.82-.17-1.54-.52-2.17a3.67 3.67 0 0 0-1.44-1.45 4.2 4.2 0 0 0-2.1-.52c-.78 0-1.5.18-2.12.53-.63.34-1.13.83-1.48 1.46a4.2 4.2 0 0 0-.53 2.1c0 .8.18 1.5.55 2.13.36.62.88 1.11 1.55 1.46.67.35 1.44.53 2.32.53Zm1.98-4.75h-4.54c.09-.59.34-1.06.75-1.42.42-.35.93-.53 1.53-.53s1.12.18 1.53.54c.4.36.65.83.73 1.41Zm5.46 4.65V14.87h-1.87V26h1.87Zm8.73 0v-3.03h2.37c.91 0 1.7-.15 2.38-.45a3.38 3.38 0 0 0 2.09-3.28 3.6 3.6 0 0 0-.54-2 3.46 3.46 0 0 0-1.55-1.29 5.81 5.81 0 0 0-2.38-.45h-4.32V26h1.95Zm2.28-4.68h-2.28v-4.17h2.28c.85 0 1.5.18 1.94.54.44.36.66.88.66 1.54 0 .68-.22 1.19-.66 1.55-.44.36-1.09.54-1.94.54Zm8.9 4.79c.6 0 1.11-.1 1.53-.28.43-.19.76-.45.99-.8V26h1.77v-4.7c0-1.14-.31-1.99-.94-2.55-.63-.57-1.53-.85-2.7-.85-.67 0-1.3.09-1.88.26-.6.16-1.1.41-1.52.73l.74 1.36c.3-.25.66-.44 1.1-.58a4.3 4.3 0 0 1 1.33-.21c.66 0 1.15.15 1.49.45.34.3.5.73.5 1.29v.12h-2.07c-1.15 0-1.99.22-2.53.65-.53.44-.8 1.02-.8 1.73 0 .46.13.88.37 1.24.25.37.6.65 1.04.86.45.2.98.3 1.58.3Zm.39-1.37c-.48 0-.86-.1-1.13-.3a.96.96 0 0 1-.4-.81c0-.71.54-1.06 1.62-1.06h1.93v.93c-.15.4-.4.7-.77.92-.37.21-.78.32-1.25.32Zm8.77 1.37c1.12 0 2-.23 2.66-.68.65-.45.97-1.05.97-1.8 0-.57-.14-1.01-.44-1.32a2.5 2.5 0 0 0-1.06-.66c-.4-.13-.93-.24-1.57-.34a7.27 7.27 0 0 1-1.42-.36c-.3-.12-.46-.34-.46-.63 0-.27.15-.5.43-.66.28-.16.7-.25 1.25-.25.85 0 1.62.2 2.3.6l.72-1.42c-.35-.21-.8-.38-1.35-.5a7.42 7.42 0 0 0-1.65-.19c-1.08 0-1.94.23-2.57.68a2.13 2.13 0 0 0-.96 1.83c0 .57.16 1.03.46 1.35.3.33.66.55 1.08.68.41.13.95.25 1.61.35.63.1 1.09.2 1.38.32.28.1.42.3.42.58 0 .59-.56.88-1.68.88a5.4 5.4 0 0 1-2.79-.79l-.72 1.42c.37.27.87.48 1.49.65.62.17 1.25.25 1.9.25Zm7.73 0c1.12 0 2-.23 2.65-.68a2.1 2.1 0 0 0 .98-1.8c0-.57-.15-1.01-.45-1.32a2.41 2.41 0 0 0-1.05-.66 11.1 11.1 0 0 0-1.58-.34 7.27 7.27 0 0 1-1.41-.36c-.31-.12-.46-.34-.46-.63 0-.27.14-.5.43-.66.28-.16.7-.25 1.25-.25.85 0 1.61.2 2.3.6l.71-1.42c-.35-.21-.8-.38-1.35-.5a7.42 7.42 0 0 0-1.65-.19c-1.08 0-1.94.23-2.57.68a2.13 2.13 0 0 0-.95 1.83c0 .57.15 1.03.45 1.35.31.33.67.55 1.09.68.41.13.95.25 1.6.35.64.1 1.1.2 1.38.32.29.1.43.3.43.58 0 .59-.56.88-1.68.88a5.4 5.4 0 0 1-2.8-.79l-.71 1.42c.37.27.86.48 1.48.65.62.17 1.26.25 1.9.25Zm7.12 2.8v-3.89a3.23 3.23 0 0 0 2.57 1.09c.78 0 1.47-.18 2.09-.52.61-.34 1.1-.82 1.45-1.44.35-.63.52-1.34.52-2.15 0-.82-.17-1.53-.52-2.15a3.68 3.68 0 0 0-1.45-1.44 4.25 4.25 0 0 0-3.6-.23 2.9 2.9 0 0 0-1.15.86v-1.05h-1.78v10.92h1.87Zm2.36-4.41a2.22 2.22 0 0 1-2.07-1.18 2.68 2.68 0 0 1-.32-1.32c0-.5.1-.95.32-1.32.2-.38.5-.68.85-.88.36-.2.77-.31 1.22-.31.69 0 1.25.23 1.7.69.45.46.67 1.07.67 1.82a2.5 2.5 0 0 1-.67 1.81c-.44.46-1.01.69-1.7.69Zm9.66 1.6c.82 0 1.55-.17 2.2-.52a3.83 3.83 0 0 0 1.53-1.46c.36-.63.54-1.34.54-2.13 0-.79-.18-1.49-.55-2.11a3.84 3.84 0 0 0-1.52-1.45 4.58 4.58 0 0 0-2.2-.53c-.81 0-1.54.18-2.2.53-.64.34-1.15.83-1.52 1.45a4.09 4.09 0 0 0-.54 2.12 3.9 3.9 0 0 0 2.07 3.58c.65.35 1.38.53 2.19.53Zm0-1.6c-.7 0-1.26-.23-1.7-.69a2.5 2.5 0 0 1-.67-1.81c0-.75.22-1.36.66-1.82a2.27 2.27 0 0 1 1.7-.69c.7 0 1.27.23 1.72.69.45.46.67 1.07.67 1.82s-.22 1.35-.67 1.81a2.3 2.3 0 0 1-1.71.69Zm7.95 1.5v-3.89c0-.8.2-1.4.61-1.83.41-.43.98-.64 1.71-.64.13 0 .28.02.44.04V17.9c-1.36 0-2.31.42-2.85 1.26v-1.17h-1.79V26h1.88Zm7.44.1c.35 0 .68-.04 1-.13.31-.09.58-.22.8-.4l-.53-1.34c-.28.22-.63.33-1.05.33-.36 0-.63-.1-.82-.3-.2-.21-.29-.51-.29-.9v-3.81h2.15v-1.5h-2.15v-1.83h-1.87v1.83h-1.32v1.5h1.32v3.86c0 .88.24 1.54.72 2 .48.46 1.16.7 2.04.7Z" fill="#FFF" fill-rule="nonzero"/>
    <g stroke="#FFF">
      <path stroke-width=".9" stroke-linecap="square" d="M12.5 10v20m24-20v20"/>
      <g transform="translate(20 13)">
        <path d="M.29.12h1v14.33h-1z"/>
        <ellipse stroke-width="1.7" cx="5.45" cy="4.97" rx="4.54" ry="4.75"/>
      </g>
    </g>
  </g>
</svg>
